X: 3967
T: Blackhall Rocks
R: waltz
M: 3/4
K: Gmajor
(e g3 e2|dBB4|A4 G2|g4 a2|b4 a2|gee4|d4 B2|A4 G2|A4 e2|)
dBB4|A4 G2|g4 a2|b4 a2|gee4|d4 B2|A4 G2|G6|G4||

